X: 36512
T: Sergeant Early's Dream
R: reel
M: 4/4
K: Ddorian
|:d|A2DE FAcA|GECD ~E3F|D^C DE FEFG|Adde f2ec|
ADDE FAcA|GECD EFGE|D^CDE FAcA|GFEF D3:|
|:(3EFG|Addc ~d3e|f2ed cAGF|ECEG ~c3d|dccB cdBc|
Addc ~d3e|faed cAGB|A~E3 c~E3|CDEC D3:|

